X:3155
L:1/4
M:3/4
K:F
 C/C/ |"F" C2 A | F2 d |"C7" E2 c | B A G | C2 B | E2 c |"F" F2 c | A2 C/C/ | C2 A | F2 d | 
"C7" E2 c | B A G | C2 B | C2 G |"F" F3/2 F/ F | F z C |:"C7" B3/2 B/ B | B A G |"F" A3/2 A/ A | 
 A G F |"C7" G3/2 G/ G | G F E |"F" F z F |1 F z C :|2"F" F z"_>Teil A" z || C/C/ |"F" C2 A | 
 F2 d |"C7" E2 c | B A G | C2 B | E2 c |"F" F2 c | A2 C/C/ | C2 A | F2 d |"C7" E2 c | B A G | 
 C2 B | C2 G |"F" F3/2 F/ F | F z z |]

